X:1
T: the Jolly Tinker
S:Paul O'Shaughnessy
Z:Juergen.Gier@post.rwth-aachen.de
M:C|
L:1/8
K:DMix
Addc AGFG|Addc AcGc|Addc AdcA|GECE ~G2FG:|\
AD (3DDD ADBD|AD (3DDD ADFG|AD (3DDD ABcA|GECE GEFG|\
AD (3DDD ADBD|AD (3DDD ADFG|A^GAB cBcA|GECE GAB^c|:\
d^cde cA (3AAA|dA (3AAA afge|~d3e ^cAAB|1^cdef g2fe:|2^cdef gefg|:\
ad (3ddd adbd|ad (3ddd adfg|ad (3ddd bdad|gece gefg|\
ad (3ddd adbd|ad (3ddd adfg|abag eaed|^cdef g2fg:|
"Var. 4th part"ad (3ddd adbd|ad (3ddd bd (3ddd|ad (3ddd bdad|\
gece g2fg|ad (3ddd adbd|addf adfg|abag eaed|^cdea gfec|]
